X:1
T:The Teetotal Society
M:9/8
L:1/8
K:F
 c| cdc AFA AF-A| cdc AFA B/2A/2 FA| cdc AFA AFA| BAB GGA BAG| z6 z/2 F/2|\
 FAc fcA f2 F| FAc fcA| BAG| FAc fcA f2 A| BAB GGA BAG| z6||

